src/Pure/16/symbolic/actions/mail-archive-symbolic.svg

<?xml version="1.0" encoding="UTF-8" standalone="no"?>
<svg
   width="16"
   height="16"
   version="1.1"
   id="svg2"
   sodipodi:docname="mail-archive-symbolic.svg"
   inkscape:version="1.4.2 (ebf0e940d0, 2025-05-08)"
   xmlns:inkscape="http://www.inkscape.org/namespaces/inkscape"
   xmlns:sodipodi="http://sodipodi.sourceforge.net/DTD/sodipodi-0.dtd"
   xmlns="http://www.w3.org/2000/svg"
   xmlns:svg="http://www.w3.org/2000/svg">
  <defs
     id="defs2">
     <style
        id="current-color-scheme"
        type="text/css">.ColorScheme-Text { color:#363636; }</style>
     </defs>
  <sodipodi:namedview
     id="namedview2"
     pagecolor="#ffffff"
     bordercolor="#000000"
     borderopacity="0.25"
     inkscape:showpageshadow="2"
     inkscape:pageopacity="0.0"
     inkscape:pagecheckerboard="0"
     inkscape:deskcolor="#d1d1d1"
     inkscape:zoom="49.6875"
     inkscape:cx="8"
     inkscape:cy="8"
     inkscape:window-width="1920"
     inkscape:window-height="1010"
     inkscape:window-x="0"
     inkscape:window-y="0"
     inkscape:window-maximized="1"
     inkscape:current-layer="svg2" />
  <path
     id="path1"
     style="fill:currentColor"
     class="ColorScheme-Text"
     d="M 3.5 0 C 3.223 0 3 0.223 3 0.5 C 3 0.777 3.223 1 3.5 1 L 12.5 1 C 12.777 1 13 0.777 13 0.5 C 13 0.223 12.777 0 12.5 0 L 3.5 0 z M 2.5 2 C 2.223 2 2 2.223 2 2.5 C 2 2.777 2.223 3 2.5 3 L 13.5 3 C 13.777 3 14 2.777 14 2.5 C 14 2.223 13.777 2 13.5 2 L 2.5 2 z M 2 4 C 0.892 4 0 4.892 0 6 L 0 14 C 0 15.108 0.892 16 2 16 L 14 16 C 15.108 16 16 15.108 16 14 L 16 6 C 16 4.892 15.108 4 14 4 L 2 4 z M 2 5 L 14 5 C 14.48888 5 14.874481 5.3540563 14.962891 5.8164062 L 8.5390625 10.931641 C 8.2334725 11.174991 7.7664975 11.174991 7.4609375 10.931641 L 1.0371094 5.8164062 C 1.1255154 5.3540563 1.51112 5 2 5 z M 1 7.0488281 L 4.7050781 10 L 1 12.951172 L 1 7.0488281 z M 15 7.0488281 L 15 12.951172 L 11.294922 10 L 15 7.0488281 z M 5.4980469 10.632812 L 6.6679688 11.564453 C 7.3988388 12.146463 8.6011313 12.146463 9.3320312 11.564453 L 10.501953 10.632812 L 14.962891 14.183594 C 14.874481 14.645944 14.48888 15 14 15 L 2 15 C 1.51112 15 1.1255194 14.645944 1.0371094 14.183594 L 5.4980469 10.632812 z " />
</svg>

<svg width="16" height="16" version="1.1" xmlns="http://www.w3.org/2000/svg">
 <path class="ColorScheme-Text" d="m2 4c-1.108 0-2 0.892-2 2v8c0 1.108 0.892 2 2 2h12c1.108 0 2-0.892 2-2v-8c0-1.108-0.892-2-2-2zm0 1h12c0.48888 0 0.87448 0.35406 0.96289 0.81641l-6.4238 5.1152c-0.30559 0.24335-0.77254 0.24335-1.0781 0l-6.4238-5.1152c0.088406-0.46235 0.47401-0.81641 0.96289-0.81641zm-1 2.0488 3.7051 2.9512-3.7051 2.9512v-5.9023zm14 0v5.9023l-3.7051-2.9512 3.7051-2.9512zm-9.502 3.584 1.1699 0.93164c0.73087 0.58201 1.9332 0.58201 2.6641 0l1.1699-0.93164 4.4609 3.5508c-0.08841 0.46235-0.47401 0.81641-0.96289 0.81641h-12c-0.48888 0-0.87448-0.35406-0.96289-0.81641l4.4609-3.5508z" fill="#363636"/>
 <path d="m3.5 0c-0.277 0-0.5 0.223-0.5 0.5s0.223 0.5 0.5 0.5h9c0.277 0 0.5-0.223 0.5-0.5s-0.223-0.5-0.5-0.5h-9zm-1 2c-0.277 0-0.5 0.223-0.5 0.5s0.223 0.5 0.5 0.5h11c0.277 0 0.5-0.223 0.5-0.5s-0.223-0.5-0.5-0.5h-11z" fill="#363636"/>
</svg>
